public/formular-icons/english/upper-j.svg

<svg style="vertical-align:-.05ex" xmlns="http://www.w3.org/2000/svg" width="1.432ex" height="1.595ex" viewBox="0 -683 633 705" xmlns:xlink="http://www.w3.org/1999/xlink"><defs><path id="a" d="M447 625q0 12-93 12h-25q-6 5-6 8t2 19q4 13 10 19h17q41-2 146-2h70q27 0 37 1t14 0q14 0 14-10 0-2-3-14-4-16-7-18t-19-3q-52 0-59-14-4-13-62-247-63-248-64-249-22-63-86-106T195-22q-58 0-98 30T57 88q0 42 23 64t52 22q45 0 50-44 0-32-18-50t-41-24q-8-2-8-3t7-9q26-29 75-29 38 0 74 32t53 83q4 12 63 250t60 245Z"/></defs><g stroke="currentColor" fill="currentColor" stroke-width="0"><use data-c="1D43D" xlink:href="#a" transform="scale(1 -1)"/></g></svg>

<svg style="vertical-align: -0.05ex" xmlns="http://www.w3.org/2000/svg" width="1.432ex" height="1.595ex" role="img" focusable="false" viewBox="0 -683 633 705" xmlns:xlink="http://www.w3.org/1999/xlink"><defs><path id="MJX-50-TEX-I-1D43D" d="M447 625Q447 637 354 637H329Q323 642 323 645T325 664Q329 677 335 683H352Q393 681 498 681Q541 681 568 681T605 682T619 682Q633 682 633 672Q633 670 630 658Q626 642 623 640T604 637Q552 637 545 623Q541 610 483 376Q420 128 419 127Q397 64 333 21T195 -22Q137 -22 97 8T57 88Q57 130 80 152T132 174Q177 174 182 130Q182 98 164 80T123 56Q115 54 115 53T122 44Q148 15 197 15Q235 15 271 47T324 130Q328 142 387 380T447 625Z"></path></defs><g stroke="currentColor" fill="currentColor" stroke-width="0" transform="scale(1,-1)"><g data-mml-node="math"><g data-mml-node="mi"><use data-c="1D43D" xlink:href="#MJX-50-TEX-I-1D43D"></use></g></g></g></svg>
